X:1
T:Wonderful, Counselor!
T:Isaac Hickman Meredith
T:Wonderful, Counselor!
T:Public Domain
T:Public Domain
T:Public Domain
C:Isaac Hickman Meredith
Z:Public Domain
%%score ( 1 2 ) ( 3 4 )
L:1/8
M:4/4
K:G
V:1 treble 
V:2 treble 
V:3 bass 
V:4 bass 
V:1
 [GBd] | [GBd][GBe][GBd][DGB] [DGB][EGc][DGB][B,DG] | [CEG][CEA][CEG][CE] [B,D]3 D | %3
w: 1.~The|peo- ple that in dark- ness walked Have|seen a won- drous light, A|
w: 2.~As|men re- joice when they di- vide The|spoils which they have gained, So|
w: 3.~For|un- to us a Child is born, To|us a Son is giv’n; His|
 [F,CD][F,CD][CDF][CDFA] [DFAd]3 [CD] | [B,D][B,D][B,DG][DGB] [DGBd]3 [GBd] | %5
w: that beamed a- far, The bright|and morn- ing star, And those|
w: it ev- er be, When Christ|shall set them free. For He|
w: dom shall in- crease, And ne-|ver, ne- ver cease, Up- on|
 [GBd][GBe][GBd][DGB] [DGB][EGc][DGB][B,DG] | [CEG][CEA][CEG][CE] [B,D]3 D | %7
w: that dwelt in death’s dark vale Have felt|their joy in- crease, Their con-|
w: shall break the shoul- der’s staff, The rod|of the op- pressed, And ev-|
w: the throne of Da- vid shall He reign|for- ev- er- more, Till ev-|
 [F,CD][F,CD][DF][CDFA] [DFAd]3 [DAc] | [DGB]>[EGc] [DGB][CDFA] [B,DG]4 || %9
w: theme shall be, “All hail the|Prince of Peace.” * *|
w: bat- tle won, As vic- tors|we shall rest. Won- der-|
w: knee shall bow And ev- ’ry|heart a- dore. * *|
"^Refrain" [DGd]3 D [F,CD]4 | [DGd]3 D [F,CD]3 [F,CD] | %11
w: ||
w: ful, Coun- sel-|The ev- er- last-|
w: ||
 [B,DG][B,DA][DGB][DGBd] [GBe][GBd][DGB][CDFA] | [A,^CG]2 [A,CE]2 [=CDFA]4 | [DGd]3 D [F,CD]4 | %14
w: |||
w: Fa- ther, and the Prince of Peace, Won-|der- ful, Coun-|sel- or! The|
w: |||
 [DGd]3 D [F,CD]3 [F,CD] | [B,DG][B,DA][DGB][DGBd] [GBe][GBd][DGB][GBd] | [Fce]2 [Fcd]2 [B,DGg]3 |] %17
w: |||
w: ev- er- last- ing|Fa- ther, and the Prince of Peace. *||
w: |||
V:2
 x | x8 | x7 D | x8 | x8 | x8 | x7 D | x8 | x8 || x3 D x4 | x3 D x4 | x8 | x8 | x8 | x8 | x8 | %16
w: ||light||||stant||||||||||
w: ||shall||||ery|||or!|ing||||||
w: ||king-||||’ry||||||||||
 x7 |] %17
w: |
w: |
w: |
V:3
 z | [G,,G,]2 [D,,D,]2 [G,,G,]2 [D,,D,]2 | [C,,C,]2 [E,,E,]2 ([G,,G,][D,,D,][B,,,B,,]) z | %3
 [A,,,A,,]2 [D,,D,]2 ([D,,D,][E,,E,][F,,F,]) z | [G,,G,]2 [G,,G,]2 ([G,,G,][A,,A,][B,,B,]) z | %5
 [G,,G,]2 [D,,D,]2 [G,,G,]2 [D,,D,]2 | [C,,C,]2 [E,,E,]2 [G,,G,][D,,D,][B,,,B,,] z | %7
 [A,,,A,,]2 [D,,D,]2 [D,,D,][E,,E,][F,,E,] z | [D,,D,]2 [D,,D,]2 [G,,D,G,]4 || %9
 [G,,D,B,]2 D,2 (A,,2 D,,2) | ([G,,D,B,]2 D,2) A,,2 D,,2 | [G,,G,]2 [D,,D,]2 [G,,G,]2 [D,,D,]2 | %12
 [A,,,A,,]2 [A,,,A,,]2 [D,,D,]4 | ([G,,D,B,]2 D,2) A,,2 D,,2 | ([G,,D,B,]2 D,2) A,,2 D,,2 | %15
 [G,,G,]2 [D,,D,]2 [G,,G,]2 [D,,D,]2 | [A,,A,]2 [D,,D,]2 [G,,D,G,]3 |] %17
V:4
 x | x8 | x8 | x8 | x8 | x8 | x8 | x8 | x8 || x2 D,2 A,,2 D,,2 | x4 A,,2 D,,2 | x8 | x8 | x8 | x8 | %15
 x8 | x7 |] %17

